; generated by PrusaSlicer 2.1.1+win64 on 2020-02-25 at 16:41:56 UTC

; 

; external perimeters extrusion width = 0.45mm
; perimeters extrusion width = 0.45mm
; infill extrusion width = 0.45mm
; solid infill extrusion width = 0.45mm
; top infill extrusion width = 0.40mm
; first layer extrusion width = 0.42mm

M73 P0 R89
M73 Q0 S90
M201 X1000 Y1000 Z1000 E5000 ; sets maximum accelerations, mm/sec^2
M203 X200 Y200 Z12 E120 ; sets maximum feedrates, mm/sec
M204 P1250 R1250 T1250 ; sets acceleration (P, T) and retract acceleration (R), mm/sec^2
M205 X8.00 Y8.00 Z0.40 E4.50 ; sets the jerk limits, mm/sec
M205 S0 T0 ; sets the minimum extruding and travel feed rate, mm/sec
M107
M862.3 P "MK3S" ; printer model check
M862.1 P0.4 ; nozzle diameter check
M115 U3.8.1 ; tell printer latest fw version
G90 ; use absolute coordinates
M83 ; extruder relative mode
M104 S215 ; set extruder temp
M140 S60 ; set bed temp
M190 S60 ; wait for bed temp
M109 S215 ; wait for extruder temp
G28 W ; home all without mesh bed level
G80 ; mesh bed leveling
G1 Y-3.0 F1000.0 ; go outside print area
G92 E0.0
G1 X60.0 E9.0 F1000.0 ; intro line
M73 Q0 S90
M73 P0 R89
G1 X100.0 E12.5 F1000.0 ; intro line
G92 E0.0
M221 S95
G21 ; set units to millimeters
G90 ; use absolute coordinates
M83 ; use relative distances for extrusion
M900 K30 ; Filament gcode
;BEFORE_LAYER_CHANGE
G92 E0.0
;0.2


G1 E-0.80000 F2100.00000
G1 Z0.600 F10800.000
;AFTER_LAYER_CHANGE
;0.2
G1 X82.481 Y64.727
G1 Z0.200
G1 E0.80000 F2100.00000
M204 S1000
G1 F1200
G1 X83.068 Y63.985 E0.02967
G1 X83.827 Y63.332 E0.03141
G1 X84.705 Y62.838 E0.03158
G1 X85.657 Y62.528 E0.03141
G1 X86.652 Y62.410 E0.03141
G1 X163.256 Y62.409 E2.40184
G1 X164.220 Y62.503 E0.03036
G1 X165.148 Y62.777 E0.03036
G1 X166.008 Y63.222 E0.03036
G1 X166.773 Y63.825 E0.03054
G1 X167.405 Y64.559 E0.03036
G1 X167.889 Y65.404 E0.03054
G1 X168.202 Y66.321 E0.03036
G1 X168.336 Y67.280 E0.03036
G1 X168.340 Y142.589 E2.36128
G1 X168.235 Y143.530 E0.02967
G1 X167.959 Y144.434 E0.02967
G1 X167.519 Y145.273 E0.02967
G1 X166.932 Y146.015 E0.02967
G1 X166.155 Y146.681 E0.03210
G1 X165.259 Y147.177 E0.03210
G1 X164.277 Y147.486 E0.03228
G1 X163.259 Y147.591 E0.03210
G1 X86.661 Y147.590 E2.40167
G1 X85.720 Y147.485 E0.02967
G1 X84.816 Y147.209 E0.02967
G1 X83.977 Y146.769 E0.02967
G1 X83.235 Y146.182 E0.02967
G1 X82.569 Y145.405 E0.03210
G1 X82.073 Y144.509 E0.03210
G1 X81.764 Y143.527 E0.03228
G1 X81.659 Y142.509 E0.03210
G1 X81.660 Y67.411 E2.35464
G1 X81.765 Y66.470 E0.02967
G1 X82.041 Y65.566 E0.02967
G1 X82.453 Y64.781 E0.02779
G1 F8640
G1 X83.068 Y63.985 E-0.23212
G1 X83.827 Y63.332 E-0.23130
G1 X84.705 Y62.838 E-0.23258
G1 X84.969 Y62.752 E-0.06401
G1 E-0.04000 F2100.00000
G1 Z0.800 F10800.000
G1 X84.402 Y63.366
G1 Z0.200
G1 E0.80000 F2100.00000
G1 F1200
G1 X86.215 Y62.787 E0.05970
G1 X163.736 Y62.790 E2.43062
G1 X164.685 Y62.974 E0.03029
G1 X165.593 Y63.365 E0.03101
G1 X166.812 Y64.388 E0.04990
G1 X167.603 Y65.606 E0.04551
G1 X167.963 Y66.989 E0.04481
G1 X167.963 Y143.021 E2.38394
G1 X167.616 Y144.361 E0.04342
G1 X166.895 Y145.521 E0.04282
G1 X166.286 Y146.130 E0.02701
G1 X165.598 Y146.634 E0.02672
G1 X163.785 Y147.213 E0.05969
G1 X86.229 Y147.213 E2.43171
G1 X84.889 Y146.866 E0.04342
G1 X83.729 Y146.145 E0.04282
G1 X83.120 Y145.536 E0.02701
G1 X82.616 Y144.848 E0.02672
G1 X82.037 Y143.035 E0.05969
G1 X82.037 Y66.979 E2.38468
G1 X82.384 Y65.639 E0.04342
G1 X83.105 Y64.479 E0.04282
G1 X83.714 Y63.870 E0.02701
G1 X84.353 Y63.402 E0.02484
G1 X84.575 Y63.706 F10800.000
G1 F1200
G1 X86.244 Y63.164 E0.05503
G1 X163.718 Y63.167 E2.42912
G1 X164.591 Y63.340 E0.02791
G1 X165.416 Y63.699 E0.02823
G1 X166.547 Y64.658 E0.04647
G1 X167.246 Y65.732 E0.04018
G1 X167.586 Y67.013 E0.04157
G1 X167.586 Y142.996 E2.38238
G1 X167.259 Y144.237 E0.04025
G1 X166.613 Y145.269 E0.03817
G1 X166.030 Y145.853 E0.02588
G1 X165.401 Y146.311 E0.02439
G1 X163.756 Y146.836 E0.05415
G1 X86.254 Y146.836 E2.43002
G1 X85.013 Y146.509 E0.04025
G1 X83.981 Y145.863 E0.03817
G1 X83.397 Y145.280 E0.02588
G1 X82.939 Y144.651 E0.02439
G1 X82.414 Y143.006 E0.05415
G1 X82.414 Y67.004 E2.38299
G1 X82.741 Y65.763 E0.04025
G1 X83.387 Y64.731 E0.03817
G1 X83.970 Y64.147 E0.02588
G1 X84.527 Y63.741 E0.02159
G1 X84.748 Y64.046 F10800.000
G1 F1200
G1 X84.796 Y64.012 E0.00185
G1 X86.273 Y63.541 E0.04863
G1 X163.698 Y63.544 E2.42761
G1 X164.496 Y63.705 E0.02550
G1 X165.238 Y64.033 E0.02545
G1 X166.280 Y64.926 E0.04302
G1 X166.913 Y65.910 E0.03669
G1 X167.209 Y67.038 E0.03655
G1 X167.209 Y142.971 E2.38083
M73 Q1 S89
M73 P1 R88
G1 X166.903 Y144.111 E0.03703
G1 X166.332 Y145.017 E0.03357
G1 X165.774 Y145.576 E0.02475
G1 X165.204 Y145.988 E0.02204
G1 X163.727 Y146.459 E0.04863
G1 X86.279 Y146.459 E2.42831
G1 X85.139 Y146.153 E0.03703
G1 X84.233 Y145.582 E0.03357
G1 X83.674 Y145.024 E0.02475
G1 X83.262 Y144.454 E0.02204
G1 X82.791 Y142.977 E0.04863
G1 X82.791 Y67.029 E2.38128
G1 X83.097 Y65.889 E0.03703
G1 X83.668 Y64.983 E0.03357
G1 X84.226 Y64.424 E0.02475
G1 X84.699 Y64.082 E0.01831
G1 X84.991 Y64.335 F10800.000
G1 F1200
G1 X86.302 Y63.918 E0.04314
G1 X163.679 Y63.921 E2.42608
G1 X164.398 Y64.070 E0.02304
G1 X165.058 Y64.365 E0.02266
G1 X166.012 Y65.192 E0.03960
G1 X166.556 Y66.037 E0.03149
G1 X166.832 Y67.063 E0.03331
G1 X166.832 Y142.945 E2.37923
G1 X166.547 Y143.983 E0.03377
G1 X166.051 Y144.765 E0.02903
G1 X165.518 Y145.298 E0.02362
G1 X165.009 Y145.665 E0.01968
G1 X163.698 Y146.082 E0.04314
G1 X86.305 Y146.082 E2.42659
G1 X85.267 Y145.797 E0.03377
G1 X84.485 Y145.301 E0.02903
G1 X83.952 Y144.768 E0.02362
G1 X83.585 Y144.259 E0.01968
G1 X83.168 Y142.948 E0.04314
G1 X83.168 Y67.055 E2.37956
G1 X83.453 Y66.017 E0.03377
G1 X83.949 Y65.235 E0.02903
G1 X84.482 Y64.702 E0.02362
G1 X84.943 Y64.370 E0.01780
G1 X85.161 Y64.677 F10800.000
G1 F1200
G1 X86.332 Y64.295 E0.03859
G1 X163.660 Y64.298 E2.42457
G1 X164.263 Y64.423 E0.01933
G1 X164.878 Y64.697 E0.02110
G1 X165.742 Y65.457 E0.03609
G1 X166.222 Y66.214 E0.02809
G1 X166.455 Y67.087 E0.02835
G1 X166.455 Y142.918 E2.37763
G1 X166.192 Y143.854 E0.03046
G1 X165.770 Y144.513 E0.02454
G1 X165.263 Y145.020 E0.02249
G1 X164.814 Y145.340 E0.01729
G1 X163.669 Y145.705 E0.03769
G1 X86.332 Y145.705 E2.42484
G1 X85.396 Y145.442 E0.03046
G1 X84.737 Y145.020 E0.02454
G1 X84.230 Y144.513 E0.02249
G1 X83.910 Y144.064 E0.01729
G1 X83.545 Y142.919 E0.03769
G1 X83.545 Y67.082 E2.37781
G1 X83.808 Y66.146 E0.03046
G1 X84.230 Y65.487 E0.02454
G1 X84.737 Y64.980 E0.02249
G1 X85.113 Y64.712 E0.01446
G1 F8640
G1 X86.332 Y64.295 E-0.29746
G1 X88.335 Y64.295 E-0.46254
G1 E-0.04000 F2100.00000
G1 Z0.800 F10800.000
G1 X86.361 Y64.672
G1 Z0.200
G1 E0.80000 F2100.00000
G1 F1200
G1 X163.639 Y64.676 E2.42302
G1 X164.164 Y64.787 E0.01681
G1 X164.695 Y65.028 E0.01829
G1 X165.472 Y65.721 E0.03263
G1 X165.866 Y66.341 E0.02306
G1 X166.078 Y67.113 E0.02510
G1 X166.078 Y142.891 E2.37596
G1 X165.838 Y143.721 E0.02710
G1 X165.490 Y144.260 E0.02011
G1 X165.008 Y144.742 E0.02136
G1 X164.620 Y145.016 E0.01488
G1 X163.639 Y145.328 E0.03228
G1 X86.359 Y145.328 E2.42307
G1 X85.529 Y145.088 E0.02710
G1 X84.990 Y144.740 E0.02011
G1 X84.508 Y144.258 E0.02136
G1 X84.234 Y143.870 E0.01488
G1 X83.922 Y142.889 E0.03228
G1 X83.922 Y67.109 E2.37604
G1 X84.162 Y66.279 E0.02710
G1 X84.510 Y65.740 E0.02011
G1 X84.992 Y65.258 E0.02136
G1 X85.380 Y64.984 E0.01488
G1 X86.303 Y64.690 E0.03040
G1 X86.390 Y65.049 F10800.000
G1 F1200
G1 X163.618 Y65.053 E2.42144
M73 Q2 S88
M73 P2 R87
G1 X164.061 Y65.150 E0.01424
G1 X164.509 Y65.358 E0.01548
G1 X165.200 Y65.983 E0.02920
G1 X165.512 Y66.471 E0.01818
G1 X165.701 Y67.140 E0.02179
G1 X165.701 Y142.863 E2.37423
G1 X165.485 Y143.586 E0.02366
G1 X165.210 Y144.007 E0.01577
G1 X164.753 Y144.463 E0.02024
G1 X164.428 Y144.690 E0.01243
G1 X163.610 Y144.951 E0.02692
G1 X86.387 Y144.951 E2.42127
G1 X85.664 Y144.735 E0.02366
G1 X85.243 Y144.460 E0.01577
G1 X84.787 Y144.003 E0.02024
G1 X84.560 Y143.678 E0.01243
G1 X84.299 Y142.860 E0.02692
G1 X84.299 Y67.137 E2.37424
G1 X84.515 Y66.414 E0.02366
G1 X84.790 Y65.993 E0.01577
G1 X85.247 Y65.537 E0.02024
G1 X85.572 Y65.310 E0.01243
G1 X86.333 Y65.067 E0.02504
G1 X86.419 Y65.426 F10800.000
G1 F1200
G1 X163.596 Y65.430 E2.41981
G1 X163.955 Y65.513 E0.01157
G1 X164.321 Y65.685 E0.01268
G1 X164.926 Y66.243 E0.02580
G1 X165.158 Y66.605 E0.01347
G1 X165.324 Y67.168 E0.01841
G1 X165.324 Y142.833 E2.37243
G1 X165.133 Y143.447 E0.02014
G1 X164.930 Y143.753 E0.01152
G1 X164.499 Y144.184 E0.01911
G1 X164.238 Y144.364 E0.00995
G1 X163.581 Y144.574 E0.02163
G1 X86.417 Y144.574 E2.41943
G1 X85.803 Y144.383 E0.02014
G1 X85.497 Y144.180 E0.01152
G1 X85.066 Y143.749 E0.01911
G1 X84.886 Y143.488 E0.00995
G1 X84.676 Y142.831 E0.02163
G1 X84.676 Y67.167 E2.37240
G1 X84.867 Y66.553 E0.02014
G1 X85.070 Y66.247 E0.01152
G1 X85.501 Y65.816 E0.01911
G1 X85.762 Y65.636 E0.00995
G1 X86.362 Y65.444 E0.01975
G1 X86.449 Y65.803 F10800.000
G1 F1200
G1 X163.574 Y65.807 E2.41820
G1 X163.812 Y65.862 E0.00767
G1 X164.132 Y66.013 E0.01109
G1 X164.651 Y66.501 E0.02233
G1 X164.806 Y66.742 E0.00898
G1 X164.947 Y67.198 E0.01495
G1 X164.947 Y142.802 E2.37053
G1 X164.784 Y143.303 E0.01650
G1 X164.652 Y143.498 E0.00740
G1 X164.246 Y143.904 E0.01798
G1 X164.050 Y144.036 E0.00743
G1 X163.551 Y144.197 E0.01642
G1 X86.448 Y144.197 E2.41753
G1 X85.947 Y144.034 E0.01650
G1 X85.752 Y143.902 E0.00740
G1 X85.346 Y143.496 E0.01798
G1 X85.214 Y143.300 E0.00743
G1 X85.053 Y142.801 E0.01642
G1 X85.053 Y67.198 E2.37049
G1 X85.216 Y66.697 E0.01650
G1 X85.348 Y66.502 E0.00740
G1 X85.754 Y66.096 E0.01798
G1 X85.950 Y65.964 E0.00743
G1 X86.392 Y65.822 E0.01454
G1 F8640
G1 X89.683 Y65.821 E-0.76000
G1 E-0.04000 F2100.00000
G1 Z0.800 F10800.000
G1 X85.562 Y66.848
G1 Z0.200
G1 E0.80000 F2100.00000
G1 F1200
G1 X85.625 Y66.758 E0.00345
G1 X86.006 Y66.378 E0.01686
G1 X86.135 Y66.293 E0.00484
G1 X86.479 Y66.180 E0.01136
G1 X163.552 Y66.184 E2.41655
G1 X163.669 Y66.211 E0.00377
G1 X163.942 Y66.340 E0.00947
G1 X164.373 Y66.757 E0.01880
G1 X164.457 Y66.885 E0.00479
G1 X164.570 Y67.229 E0.01136
G1 X164.570 Y142.769 E2.36850
G1 X164.438 Y143.152 E0.01270
G1 X164.375 Y143.242 E0.00345
G1 X163.994 Y143.622 E0.01686
G1 X163.865 Y143.707 E0.00484
G1 X163.521 Y143.820 E0.01136
G1 X86.481 Y143.820 E2.41553
G1 X86.098 Y143.688 E0.01270
G1 X86.008 Y143.625 E0.00345
G1 X85.628 Y143.244 E0.01686
G1 X85.543 Y143.115 E0.00484
G1 X85.430 Y142.771 E0.01136
G1 X85.430 Y67.231 E2.36850
G1 X85.543 Y66.905 E0.01081
G1 X85.889 Y67.037 F10800.000
G1 F1200
G1 X86.260 Y66.657 E0.01666
G1 X86.514 Y66.557 E0.00856
G1 X163.500 Y66.557 E2.41382
M73 Q3 S87
M73 P3 R86
G1 X163.750 Y66.667 E0.00856
G1 X164.093 Y67.010 E0.01522
G1 X164.193 Y67.264 E0.00856
G1 X164.193 Y142.736 E2.36635
G1 X164.093 Y142.990 E0.00856
G1 X163.740 Y143.343 E0.01566
G1 X163.486 Y143.443 E0.00856
G1 X86.514 Y143.443 E2.41338
G1 X86.260 Y143.343 E0.00856
G1 X85.907 Y142.990 E0.01566
G1 X85.807 Y142.736 E0.00856
G1 X85.807 Y67.264 E2.36635
G1 X85.869 Y67.094 E0.00569
G1 X86.213 Y67.237 F10800.000
G1 F1200
G1 X86.487 Y66.963 E0.01215
G1 X86.556 Y66.934 E0.00235
G1 X163.444 Y66.934 E2.41075
G1 X163.513 Y66.963 E0.00235
G1 X163.787 Y67.237 E0.01215
G1 X163.816 Y67.306 E0.00235
G1 X163.816 Y142.694 E2.36372
G1 X163.787 Y142.763 E0.00235
G1 X163.513 Y143.037 E0.01215
G1 X163.444 Y143.066 E0.00235
G1 X86.556 Y143.066 E2.41075
G1 X86.487 Y143.037 E0.00235
G1 X86.213 Y142.763 E0.01215
G1 X86.184 Y142.694 E0.00235
G1 X86.190 Y67.292 E2.36415
G1 X86.561 Y67.422 F10800.000
G1 F1200
G1 X86.672 Y67.311 E0.00490
G1 X163.328 Y67.311 E2.40350
G1 X163.439 Y67.422 E0.00490
G1 X163.439 Y142.578 E2.35647
G1 X163.328 Y142.689 E0.00490
G1 X86.672 Y142.689 E2.40350
G1 X86.561 Y142.578 E0.00490
G1 X86.561 Y67.482 E2.35459
G1 X86.960 Y67.710 F10800.000
G1 F1200
G1 X163.040 Y67.710 E2.38544
G1 X163.040 Y142.290 E2.33840
G1 X86.960 Y142.290 E2.38544
G1 X86.960 Y67.770 E2.33652
G1 X87.347 Y67.812 F10800.000
G1 X87.337 Y68.087
G1 F1200
G1 X162.663 Y68.087 E2.36179
M73 Q4 S86
M73 P4 R85
G1 X162.663 Y141.913 E2.31476
G1 X87.337 Y141.913 E2.36179
G1 X87.337 Y68.147 E2.31288
G1 F8640
G1 X90.629 Y68.144 E-0.76000
G1 E-0.04000 F2100.00000
G1 Z0.800 F10800.000
G1 X97.290 Y82.790
G1 Z0.200
G1 E0.80000 F2100.00000
G1 F1200
G1 X152.710 Y82.790 E1.73766
G1 X152.710 Y133.210 E1.58088
G1 X97.290 Y133.210 E1.73766
G1 X97.290 Y82.850 E1.57900
G1 X97.180 Y82.405 F10800.000
G1 X96.913 Y82.413
G1 F1200
G1 X153.087 Y82.413 E1.76130
G1 X153.087 Y133.587 E1.60453
G1 X96.913 Y133.587 E1.76130
G1 X96.913 Y82.473 E1.60265
G1 F8640
G1 X100.204 Y82.469 E-0.76000
G1 E-0.04000 F2100.00000
G1 Z0.800 F10800.000
G1 X96.800 Y133.259
G1 Z0.200
G1 E0.80000 F2100.00000
G1 F1200
G1 X87.620 Y124.079 E0.40850
G1 X87.620 Y123.544 E0.01684
G1 X96.630 Y132.554 E0.40095
G1 X96.630 Y132.019 E0.01684
G1 X87.620 Y123.009 E0.40095
G1 X87.620 Y122.474 E0.01684
G1 X96.630 Y131.484 E0.40095
G1 X96.630 Y130.949 E0.01684
G1 X87.620 Y121.938 E0.40095
G1 X87.620 Y121.403 E0.01684
G1 X96.630 Y130.414 E0.40095
G1 X96.630 Y129.878 E0.01684
G1 X87.620 Y120.868 E0.40095
G1 X87.620 Y120.333 E0.01684
G1 X96.630 Y129.343 E0.40095
G1 X96.630 Y128.808 E0.01684
G1 X87.620 Y119.798 E0.40095
G1 X87.620 Y119.263 E0.01684
G1 X96.630 Y128.273 E0.40095
G1 X96.630 Y127.738 E0.01684
G1 X87.620 Y118.728 E0.40095
G1 X87.620 Y118.192 E0.01684
G1 X96.630 Y127.203 E0.40095
G1 X96.630 Y126.667 E0.01684
G1 X87.620 Y117.657 E0.40095
G1 X87.620 Y117.122 E0.01684
G1 X96.630 Y126.132 E0.40095
G1 X96.630 Y125.597 E0.01684
G1 X87.620 Y116.587 E0.40095
G1 X87.620 Y116.052 E0.01684
G1 X96.630 Y125.062 E0.40095
G1 X96.630 Y124.527 E0.01684
G1 X87.620 Y115.517 E0.40095
G1 X87.620 Y114.981 E0.01684
G1 X96.630 Y123.992 E0.40095
G1 X96.630 Y123.457 E0.01684
G1 X87.620 Y114.446 E0.40095
G1 X87.620 Y113.911 E0.01684
G1 X96.630 Y122.921 E0.40095
G1 X96.630 Y122.386 E0.01684
G1 X87.620 Y113.376 E0.40095
G1 X87.620 Y112.841 E0.01684
G1 X96.630 Y121.851 E0.40095
G1 X96.630 Y121.316 E0.01684
G1 X87.620 Y112.306 E0.40095
G1 X87.620 Y111.770 E0.01684
G1 X96.630 Y120.781 E0.40095
G1 X96.630 Y120.246 E0.01684
G1 X87.620 Y111.235 E0.40095
G1 X87.620 Y110.700 E0.01684
G1 X96.630 Y119.710 E0.40095
G1 X96.630 Y119.175 E0.01684
G1 X87.620 Y110.165 E0.40095
G1 X87.620 Y109.630 E0.01684
G1 X96.630 Y118.640 E0.40095
G1 X96.630 Y118.105 E0.01684
G1 X87.620 Y109.095 E0.40095
G1 X87.620 Y108.559 E0.01684
G1 X96.630 Y117.570 E0.40095
G1 X96.630 Y117.035 E0.01684
G1 X87.620 Y108.024 E0.40095
G1 X87.620 Y107.489 E0.01684
G1 X96.630 Y116.499 E0.40095
G1 X96.630 Y115.964 E0.01684
G1 X87.620 Y106.954 E0.40095
G1 X87.620 Y106.419 E0.01684
G1 X96.630 Y115.429 E0.40095
G1 X96.630 Y114.894 E0.01684
G1 X87.620 Y105.884 E0.40095
G1 X87.620 Y105.349 E0.01684
G1 X96.630 Y114.359 E0.40095
G1 X96.630 Y113.824 E0.01684
G1 X87.620 Y104.813 E0.40095
G1 X87.620 Y104.278 E0.01684
G1 X96.630 Y113.288 E0.40095
G1 X96.630 Y112.753 E0.01684
G1 X87.620 Y103.743 E0.40095
M73 Q5 S85
M73 P5 R84
G1 X87.620 Y103.208 E0.01684
G1 X96.630 Y112.218 E0.40095
G1 X96.630 Y111.683 E0.01684
G1 X87.620 Y102.673 E0.40095
G1 X87.620 Y102.138 E0.01684
G1 X96.630 Y111.148 E0.40095
G1 X96.630 Y110.613 E0.01684
G1 X87.620 Y101.602 E0.40095
G1 X87.620 Y101.067 E0.01684
G1 X96.630 Y110.078 E0.40095
G1 X96.630 Y109.542 E0.01684
G1 X87.620 Y100.532 E0.40095
G1 X87.620 Y99.997 E0.01684
G1 X96.630 Y109.007 E0.40095
G1 X96.630 Y108.472 E0.01684
G1 X87.620 Y99.462 E0.40095
G1 X87.620 Y98.927 E0.01684
G1 X96.630 Y107.937 E0.40095
G1 X96.630 Y107.402 E0.01684
G1 X87.620 Y98.391 E0.40095
G1 X87.620 Y97.856 E0.01684
G1 X96.630 Y106.867 E0.40095
G1 X96.630 Y106.331 E0.01684
G1 X87.620 Y97.321 E0.40095
G1 X87.620 Y96.786 E0.01684
G1 X96.630 Y105.796 E0.40095
G1 X96.630 Y105.261 E0.01684
G1 X87.620 Y96.251 E0.40095
G1 X87.620 Y95.716 E0.01684
G1 X96.630 Y104.726 E0.40095
G1 X96.630 Y104.191 E0.01684
G1 X87.620 Y95.180 E0.40095
G1 X87.620 Y94.645 E0.01684
G1 X96.630 Y103.656 E0.40095
G1 X96.630 Y103.120 E0.01684
G1 X87.620 Y94.110 E0.40095
G1 X87.620 Y93.575 E0.01684
G1 X96.630 Y102.585 E0.40095
G1 X96.630 Y102.050 E0.01684
